Newaita-dark/.DP/32/teamviewer-indicator-connected.svg

<svg xmlns="http://www.w3.org/2000/svg" xmlns:xlink="http://www.w3.org/1999/xlink" width="32px" height="32px" viewBox="0 0 32 32" version="1.1">
<g id="surface1">
<path style=" stroke:none;fill-rule:nonzero;fill:rgb(93.333334%,93.333334%,93.333334%);fill-opacity:1;" d="M 15.878906 4.21875 C 9.277344 4.21875 3.96875 9.527344 3.96875 16.128906 C 3.96875 22.722656 9.277344 28.035156 15.878906 28.035156 C 17.765625 28.035156 19.546875 27.597656 21.128906 26.824219 L 19.113281 24.808594 C 18.332031 24.042969 18.324219 22.765625 19.097656 21.992188 C 19.871094 21.21875 21.148438 21.226562 21.910156 22.011719 L 23.46875 23.566406 L 26.777344 18.371094 L 26.769531 18.378906 C 26.992188 18.023438 27.316406 17.75 27.695312 17.59375 C 27.753906 17.113281 27.785156 16.621094 27.785156 16.128906 C 27.785156 9.527344 22.472656 4.21875 15.878906 4.21875 Z M 19.167969 11.488281 C 19.527344 11.488281 19.867188 11.632812 20.113281 11.886719 L 23.421875 15.195312 C 23.9375 15.710938 23.9375 16.542969 23.421875 17.058594 L 20.113281 20.363281 C 19.785156 20.707031 19.296875 20.839844 18.835938 20.71875 C 18.378906 20.597656 18.019531 20.238281 17.898438 19.78125 C 17.777344 19.324219 17.914062 18.832031 18.253906 18.503906 L 19.316406 17.4375 C 19.273438 17.441406 19.230469 17.441406 19.183594 17.441406 L 12.441406 17.441406 L 13.5 18.503906 C 13.839844 18.832031 13.976562 19.324219 13.855469 19.78125 C 13.734375 20.238281 13.375 20.597656 12.917969 20.71875 C 12.457031 20.839844 11.96875 20.707031 11.636719 20.363281 L 8.332031 17.058594 C 7.816406 16.542969 7.816406 15.710938 8.332031 15.195312 L 11.636719 11.886719 C 11.878906 11.644531 12.199219 11.5 12.542969 11.488281 C 13.085938 11.472656 13.582031 11.792969 13.792969 12.292969 C 14.007812 12.792969 13.890625 13.371094 13.5 13.75 L 12.441406 14.808594 L 19.183594 14.808594 C 19.230469 14.808594 19.273438 14.8125 19.320312 14.816406 L 18.253906 13.75 C 17.871094 13.378906 17.75 12.808594 17.949219 12.308594 C 18.152344 11.816406 18.636719 11.488281 19.167969 11.488281 Z M 20.511719 16.011719 C 20.519531 16.089844 20.519531 16.164062 20.515625 16.242188 L 20.628906 16.128906 Z M 26.910156 20.621094 L 24.617188 24.226562 C 25.585938 23.183594 26.367188 21.964844 26.910156 20.621094 Z M 20.5 22.730469 C 20.332031 22.730469 20.164062 22.792969 20.03125 22.925781 C 19.769531 23.191406 19.769531 23.597656 20.035156 23.863281 C 20.039062 23.863281 20.042969 23.863281 20.042969 23.867188 L 22.324219 26.148438 C 22.738281 25.882812 23.136719 25.589844 23.511719 25.277344 C 23.363281 25.261719 23.222656 25.191406 23.117188 25.085938 L 20.972656 22.941406 C 20.96875 22.9375 20.964844 22.933594 20.964844 22.933594 C 20.832031 22.800781 20.667969 22.730469 20.5 22.730469 Z M 20.5 22.730469 "/>
<path style=" stroke:none;fill-rule:nonzero;fill:rgb(93.333334%,93.333334%,93.333334%);fill-opacity:1;" d="M 28.390625 18.105469 C 27.957031 18.125 27.5625 18.355469 27.332031 18.726562 L 23.585938 24.621094 L 21.4375 22.472656 C 21.105469 22.132812 20.621094 21.996094 20.160156 22.117188 C 19.699219 22.238281 19.339844 22.597656 19.222656 23.054688 C 19.101562 23.515625 19.238281 24.003906 19.574219 24.332031 L 22.882812 27.644531 C 23.167969 27.925781 23.5625 28.0625 23.957031 28.019531 C 24.355469 27.976562 24.710938 27.753906 24.925781 27.417969 L 29.558594 20.140625 C 29.828125 19.726562 29.84375 19.195312 29.597656 18.765625 C 29.355469 18.335938 28.886719 18.078125 28.390625 18.105469 Z M 28.390625 18.105469 "/>
</g>
</svg>

<svg xmlns="http://www.w3.org/2000/svg" width="32pt" height="32pt" viewBox="0 0 32 32"><g fill="#bdbdbd"><path d="M15.875 4.219A11.883 11.883 0 0 0 3.969 16.125c0 6.598 5.312 11.91 11.906 11.91 1.89 0 3.672-.437 5.254-1.21l-2.016-2.016a1.992 1.992 0 0 1-.015-2.817 1.984 1.984 0 0 1 2.812.02l1.559 1.558 3.308-5.199-.004.008a1.96 1.96 0 0 1 .922-.785c.059-.48.09-.969.09-1.469a11.884 11.884 0 0 0-11.91-11.906zm3.297 7.27c.355 0 .695.144.941.398l3.309 3.308a1.316 1.316 0 0 1 0 1.864l-3.309 3.308a1.31 1.31 0 0 1-1.277.352 1.316 1.316 0 0 1-.582-2.215l1.062-1.067c-.043.004-.086.008-.132.004H12.44l1.059 1.063a1.317 1.317 0 1 1-1.863 1.863L8.332 17.06a1.316 1.316 0 0 1 0-1.864l3.305-3.308a1.32 1.32 0 0 1 2.16.406c.21.5.094 1.078-.297 1.457l-1.059 1.059h6.743c.046 0 .09.004.136.007l-1.066-1.066a1.315 1.315 0 0 1 .918-2.262zm1.34 4.523c.008.074.008.152.004.23l.113-.117zm6.398 4.613l-2.293 3.602a11.814 11.814 0 0 0 2.293-3.602zM20.5 22.73a.673.673 0 0 0-.469.196.643.643 0 0 0 .008.933c0 .004.004.004.004.008l2.281 2.281c.414-.265.813-.558 1.192-.87a.685.685 0 0 1-.399-.192l-2.144-2.145-.008-.007a.65.65 0 0 0-.465-.204zm0 0"/><path d="M28.39 18.102a1.324 1.324 0 0 0-1.054.625l-3.75 5.89-2.148-2.144a1.317 1.317 0 1 0-1.864 1.863l3.309 3.305a1.315 1.315 0 0 0 2.043-.223l4.629-7.277a1.32 1.32 0 0 0-1.164-2.04zm0 0"/></g></svg>
